usr/share/icons/Ambiant-MATE/actions/22/go-home.svg

<?xml version="1.0" encoding="UTF-8" standalone="no"?>
<!-- Created with Inkscape (http://www.inkscape.org/) -->

<svg
   xmlns:svg="http://www.w3.org/2000/svg"
   xmlns="http://www.w3.org/2000/svg"
   xmlns:xlink="http://www.w3.org/1999/xlink"
   version="1.1"
   width="22"
   height="22"
   id="svg2405">
  <defs
     id="defs2407">
    <linearGradient
       id="linearGradient3662">
      <stop
         id="stop3664"
         style="stop-color:#c17d11;stop-opacity:1"
         offset="0" />
      <stop
         id="stop3666"
         style="stop-color:#8f5902;stop-opacity:1"
         offset="1" />
    </linearGradient>
    <linearGradient
       id="linearGradient3656">
      <stop
         id="stop3658"
         style="stop-color:#c17d11;stop-opacity:1"
         offset="0" />
      <stop
         id="stop3660"
         style="stop-color:#e9b96e;stop-opacity:1"
         offset="1" />
    </linearGradient>
    <linearGradient
       id="linearGradient2804">
      <stop
         id="stop2806"
         style="stop-color:#000000;stop-opacity:0"
         offset="0" />
      <stop
         id="stop2812"
         style="stop-color:#000000;stop-opacity:1"
         offset="0.5" />
      <stop
         id="stop2808"
         style="stop-color:#000000;stop-opacity:0"
         offset="1" />
    </linearGradient>
    <linearGradient
       id="linearGradient2781">
      <stop
         id="stop2783"
         style="stop-color:#000000;stop-opacity:1"
         offset="0" />
      <stop
         id="stop2785"
         style="stop-color:#000000;stop-opacity:0"
         offset="1" />
    </linearGradient>
    <linearGradient
       id="linearGradient4873">
      <stop
         id="stop4875"
         style="stop-color:#ffffff;stop-opacity:1"
         offset="0" />
      <stop
         id="stop4877"
         style="stop-color:#ffffff;stop-opacity:0"
         offset="1" />
    </linearGradient>
    <linearGradient
       id="linearGradient2368">
      <stop
         id="stop2370"
         style="stop-color:#ffffff;stop-opacity:1"
         offset="0" />
      <stop
         id="stop2372"
         style="stop-color:#ffffff;stop-opacity:0"
         offset="1" />
    </linearGradient>
    <linearGradient
       id="linearGradient2341">
      <stop
         id="stop2343"
         style="stop-color:#000000;stop-opacity:1"
         offset="0" />
      <stop
         id="stop2345"
         style="stop-color:#000000;stop-opacity:0"
         offset="1" />
    </linearGradient>
    <linearGradient
       id="linearGradient2319">
      <stop
         id="stop2321"
         style="stop-color:#000000;stop-opacity:1"
         offset="0" />
      <stop
         id="stop2323"
         style="stop-color:#000000;stop-opacity:0"
         offset="1" />
    </linearGradient>
    <linearGradient
       id="linearGradient2299">
      <stop
         id="stop2301"
         style="stop-color:#ffffff;stop-opacity:1"
         offset="0" />
      <stop
         id="stop2303"
         style="stop-color:#ffffff;stop-opacity:0"
         offset="1" />
    </linearGradient>
    <linearGradient
       x1="80.223602"
       y1="117.5205"
       x2="48.046001"
       y2="59.7995"
       id="XMLID_2_"
       gradientUnits="userSpaceOnUse"
       gradientTransform="matrix(0.314683,0,0,0.314683,4.128264,3.742874)">
      <stop
         id="stop17"
         style="stop-color:#cccccc;stop-opacity:1"
         offset="0" />
      <stop
         id="stop19"
         style="stop-color:#ffffff;stop-opacity:1"
         offset="0.9831" />
      <midPointStop
         offset="0"
         style="stop-color:#CCCCCC"
         id="midPointStop48" />
      <midPointStop
         offset="0.5"
         style="stop-color:#CCCCCC"
         id="midPointStop50" />
      <midPointStop
         offset="0.9831"
         style="stop-color:#FFFFFF"
         id="midPointStop52" />
    </linearGradient>
    <linearGradient
       x1="64.387703"
       y1="65.124001"
       x2="64.387703"
       y2="35.569"
       id="XMLID_39_"
       gradientUnits="userSpaceOnUse"
       gradientTransform="matrix(0.354101,0,0,0.354101,1.638679,-0.08364921)">
      <stop
         id="stop336"
         style="stop-color:#ffffff;stop-opacity:1"
         offset="0" />
      <stop
         id="stop338"
         style="stop-color:#ff6200;stop-opacity:1"
         offset="0.85390002" />
      <stop
         id="stop340"
         style="stop-color:#f25d00;stop-opacity:1"
         offset="1" />
      <midPointStop
         offset="0"
         style="stop-color:#FFFFFF"
         id="midPointStop335" />
      <midPointStop
         offset="0.5"
         style="stop-color:#FFFFFF"
         id="midPointStop337" />
      <midPointStop
         offset="0.8539"
         style="stop-color:#FF6200"
         id="midPointStop339" />
      <midPointStop
         offset="0.5"
         style="stop-color:#FF6200"
         id="midPointStop341" />
      <midPointStop
         offset="1"
         style="stop-color:#F25D00"
         id="midPointStop343" />
    </linearGradient>
    <radialGradient
       cx="11.68129"
       cy="19.554111"
       r="8.2452126"
       fx="11.68129"
       fy="19.554111"
       id="radialGradient2977"
       xlink:href="#linearGradient2341"
       gradientUnits="userSpaceOnUse"
       gradientTransform="matrix(2.008669,0,0,-1.9116106,-3.541416,48.211918)" />
    <radialGradient
       cx="7.5326638"
       cy="24.202574"
       r="8.2452126"
       fx="7.5326638"
       fy="24.202574"
       id="radialGradient2980"
       xlink:href="#linearGradient2299"
       gradientUnits="userSpaceOnUse"
       gradientTransform="matrix(1.9045475,0,0,1.8606096,-12.125499,-34.327862)" />
    <linearGradient
       x1="64.387703"
       y1="65.124001"
       x2="64.387703"
       y2="35.569"
       id="linearGradient2984"
       xlink:href="#XMLID_39_"
       gradientUnits="userSpaceOnUse"
       gradientTransform="matrix(0.17289321,0,0,0.16955443,0.15232484,-0.41223987)" />
    <radialGradient
       cx="29.913452"
       cy="30.442923"
       r="4.001883"
       fx="29.913452"
       fy="30.442923"
       id="radialGradient2987"
       xlink:href="#linearGradient2368"
       gradientUnits="userSpaceOnUse"
       gradientTransform="matrix(1.262901,0,0,1.1551337,-23.726514,-20.753712)" />
    <radialGradient
       cx="20.443665"
       cy="37.425831"
       r="1.0821035"
       fx="20.443665"
       fy="37.425831"
       id="radialGradient2992"
       xlink:href="#linearGradient2319"
       gradientUnits="userSpaceOnUse"
       gradientTransform="matrix(0.55242058,0,0,0.467768,-1.7957248,1.1872289)" />
    <linearGradient
       x1="19.645313"
       y1="30.945076"
       x2="20.598284"
       y2="45.897984"
       id="linearGradient2995"
       xlink:href="#linearGradient3656"
       gradientUnits="userSpaceOnUse"
       gradientTransform="matrix(0.35892381,0,0,0.55281356,2.1701314,-2.1490686)" />
    <linearGradient
       x1="19.641373"
       y1="47.097904"
       x2="17"
       y2="39.408337"
       id="linearGradient2998"
       xlink:href="#linearGradient3662"
       gradientUnits="userSpaceOnUse"
       gradientTransform="matrix(0.50000001,0,0,0.53333333,-0.49999997,-2.9999998)" />
    <linearGradient
       x1="24.066557"
       y1="25.745584"
       x2="24.066557"
       y2="47.865883"
       id="linearGradient3001"
       xlink:href="#linearGradient4873"
       gradientUnits="userSpaceOnUse"
       gradientTransform="matrix(0.44139714,0,0,0.43367348,0.18201774,0.46428553)" />
    <linearGradient
       x1="29.815948"
       y1="46.024483"
       x2="29.815948"
       y2="5.5"
       id="linearGradient3004"
       xlink:href="#XMLID_2_"
       gradientUnits="userSpaceOnUse"
       gradientTransform="matrix(0.47204175,0,0,0.46116505,-0.56177439,-0.26699037)" />
    <linearGradient
       x1="21.875"
       y1="48.000977"
       x2="21.875"
       y2="40"
       id="linearGradient2951"
       xlink:href="#linearGradient2804"
       gradientUnits="userSpaceOnUse"
       gradientTransform="matrix(0.46808511,0,0,0.375,0.53191489,4)" />
    <radialGradient
       cx="1"
       cy="44"
       r="5"
       fx="1"
       fy="44"
       id="radialGradient2954"
       xlink:href="#linearGradient2781"
       gradientUnits="userSpaceOnUse"
       gradientTransform="matrix(0.93617022,0,0,0.3,17.382979,7.3)" />
    <radialGradient
       cx="1"
       cy="44"
       r="5"
       fx="1"
       fy="44"
       id="radialGradient2957"
       xlink:href="#linearGradient2781"
       gradientUnits="userSpaceOnUse"
       gradientTransform="matrix(0.93617022,0,0,0.3,-6.6170213,-33.7)" />
  </defs>
  <path
     d="M 2.5,11.262136 2.529503,21.5 19.5,21.5 19.5,11.262136 10.767228,2.4999999 2.5000004,11.262136 z"
     id="rect5117"
     style="fill:url(#linearGradient3004);fill-opacity:1;fill-rule:nonzero;stroke:#757575;stroke-width:0.99999994;stroke-linecap:butt;stroke-linejoin:round;stroke-miterlimit:4;stroke-opacity:1;stroke-dasharray:none;stroke-dashoffset:0;marker:none;visibility:visible;display:inline;overflow:visible" />
  <path
     d="m 3.5,11.306122 0,9.193878 15,0 0,-9.193878 L 10.775549,3.4999999 3.5,11.306122 z"
     id="path7391"
     style="opacity:0.4;fill:none;stroke:url(#linearGradient3001);stroke-width:0.99999994;stroke-linecap:butt;stroke-linejoin:miter;stroke-miterlimit:4;stroke-opacity:1;stroke-dasharray:none;stroke-dashoffset:0;marker:none;visibility:visible;display:inline;overflow:visible" />
  <path
     d="m 11,13 0,8 -6,0 0,-8 6,0 z"
     id="path3438"
     style="fill:url(#linearGradient2998);fill-opacity:1;fill-rule:evenodd" />
  <path
     d="m 10,14 0,7 -4,0 0,-7 4,0 z"
     id="path3440"
     style="fill:url(#linearGradient2995);fill-opacity:1;fill-rule:evenodd" />
  <path
     d="m 9.498285,18.187653 c 0.330289,0 0.597267,0.225903 0.597267,0.50383 C 10.095552,18.972221 9.828574,19.2 9.498285,19.2 9.168248,19.2 8.9,18.972221 8.9,18.691483 c 2.53e-4,-0.277927 0.268248,-0.50383 0.598285,-0.50383 z"
     id="path3442"
     style="opacity:0.40909089;fill:url(#radialGradient2992);fill-opacity:1;fill-rule:evenodd" />
  <path
     d="m 9.495969,18.029128 c 0.271727,0 0.491367,0.212854 0.491367,0.474725 0,0.264522 -0.21964,0.479141 -0.491367,0.479141 -0.271516,0 -0.492202,-0.214619 -0.492202,-0.479141 2.08e-4,-0.261871 0.220686,-0.474725 0.492202,-0.474725 z"
     id="path3444"
     style="fill:#fce94f;fill-opacity:1;fill-rule:evenodd" />
  <rect
     width="3.9987555"
     height="3.9987555"
     rx="0.38118067"
     ry="0.38233405"
     x="12.500622"
     y="13.500622"
     id="rect3464"
     style="fill:#a9c3c8;fill-opacity:1;fill-rule:nonzero;stroke:#757575;stroke-width:1.00124454;stroke-linecap:butt;stroke-linejoin:miter;stroke-miterlimit:4;stroke-opacity:1;stroke-dasharray:none;stroke-dashoffset:0;marker:none;visibility:visible;display:inline;overflow:visible" />
  <path
     d="m 13.006296,15.984926 c 1.217955,0.12153 1.86085,-0.53052 2.985369,-0.569799 L 16,14.002506 l -3,-0.0022 0.0063,1.984633 z"
     id="path3466"
     style="opacity:0.39772728;fill:url(#radialGradient2987);fill-opacity:1;fill-rule:nonzero;stroke:none;stroke-width:0.99999958;marker:none;visibility:visible;display:inline;overflow:visible" />
  <path
     d="m 11.289072,5.1627793 9.24132,8.2214597 0.241532,0.187698 0.197098,-0.08207 -0.182057,-0.364712 -0.135548,-0.106988 -9.362345,-7.4564984 -9.467117,7.5383924 -0.1160116,0.06901 -0.1058104,0.338431 0.2116214,0.06189 0.187762,-0.147681 9.2895556,-8.2589326 z"
     id="path3472"
     style="fill:url(#linearGradient2984)" />
  <path
     d="m 0.50000004,9.382876 0,3.431267 L 2.5,13.802604 c 0,0 8.394189,-8.071589 8.5,-8.1533149 L 19.5,13.81 21.5,12.792893 21.5,9.38775 11,-0.30014697 0.50000004,9.382876 z"
     id="path3474"
     style="fill:#d1524c;fill-opacity:1;stroke:#973137;stroke-width:0.99800009;stroke-miterlimit:4;stroke-opacity:1;stroke-dasharray:none" />
  <path
     d="M 1,9.583234 1.037453,12.599853 11,3.099853 10.96733,0.49985303 1,9.583234 z"
     id="path3476"
     style="opacity:0.40909089;fill:url(#radialGradient2980);fill-opacity:1;fill-rule:nonzero;stroke:none;stroke-width:1;marker:none;visibility:visible;display:inline;overflow:visible" />
  <path
     d="M 11.000002,3.099853 11,0.49985303 21,9.63153 l 0,2.968323 -9.999998,-9.5 z"
     id="path3478"
     style="opacity:0.13636367;fill:url(#radialGradient2977);fill-opacity:1;fill-rule:nonzero;stroke:none;stroke-width:1;marker:none;visibility:visible;display:inline;overflow:visible" />
  <path
     d="m 9.626858,18.410675 a 0.2458926,0.23846691 0 0 1 -0.491785,0 0.2458926,0.23846691 0 1 1 0.491785,0 z"
     id="path3670"
     style="fill:#ffffff;fill-opacity:1;stroke:none" />
</svg>

<?xml version="1.0" encoding="UTF-8" standalone="no"?>
<!-- Created with Inkscape (http://www.inkscape.org/) -->
<svg id="svg2405" xmlns="http://www.w3.org/2000/svg" height="22" width="22" version="1.1" xmlns:xlink="http://www.w3.org/1999/xlink">
 <defs id="defs2407">
  <radialGradient id="radialGradient2977" gradientUnits="userSpaceOnUse" cy="19.554" cx="11.681" gradientTransform="matrix(2.0087 0 0 -1.9116 -3.5414 48.212)" r="8.2452">
   <stop id="stop2343" offset="0"/>
   <stop id="stop2345" style="stop-opacity:0" offset="1"/>
  </radialGradient>
  <radialGradient id="radialGradient2980" gradientUnits="userSpaceOnUse" cy="24.203" cx="7.5327" gradientTransform="matrix(1.9045 0 0 1.8606 -12.125 -34.328)" r="8.2452">
   <stop id="stop2301" style="stop-color:#fff" offset="0"/>
   <stop id="stop2303" style="stop-color:#fff;stop-opacity:0" offset="1"/>
  </radialGradient>
  <linearGradient id="linearGradient2984" y2="35.569" gradientUnits="userSpaceOnUse" x2="64.388" gradientTransform="matrix(.17289 0 0 .16955 .15232 -.41224)" y1="65.124" x1="64.388">
   <stop id="stop336" style="stop-color:#fff" offset="0"/>
   <stop id="stop338" style="stop-color:#ff6200" offset=".85390"/>
   <stop id="stop340" style="stop-color:#f25d00" offset="1"/>
  </linearGradient>
  <radialGradient id="radialGradient2987" gradientUnits="userSpaceOnUse" cy="30.443" cx="29.913" gradientTransform="matrix(1.2629 0 0 1.1551 -23.727 -20.754)" r="4.0019">
   <stop id="stop2370" style="stop-color:#fff" offset="0"/>
   <stop id="stop2372" style="stop-color:#fff;stop-opacity:0" offset="1"/>
  </radialGradient>
  <radialGradient id="radialGradient2992" gradientUnits="userSpaceOnUse" cy="37.426" cx="20.444" gradientTransform="matrix(.55242 0 0 .46777 -1.7957 1.1872)" r="1.0821">
   <stop id="stop2321" offset="0"/>
   <stop id="stop2323" style="stop-opacity:0" offset="1"/>
  </radialGradient>
  <linearGradient id="linearGradient2995" y2="45.898" gradientUnits="userSpaceOnUse" x2="20.598" gradientTransform="matrix(.35892 0 0 .55281 2.1701 -2.1491)" y1="30.945" x1="19.645">
   <stop id="stop3658" style="stop-color:#c17d11" offset="0"/>
   <stop id="stop3660" style="stop-color:#e9b96e" offset="1"/>
  </linearGradient>
  <linearGradient id="linearGradient2998" y2="39.408" gradientUnits="userSpaceOnUse" x2="17" gradientTransform="matrix(0.5 0 0 .53333 -0.5 -3)" y1="47.098" x1="19.641">
   <stop id="stop3664" style="stop-color:#c17d11" offset="0"/>
   <stop id="stop3666" style="stop-color:#8f5902" offset="1"/>
  </linearGradient>
  <linearGradient id="linearGradient3001" y2="47.866" gradientUnits="userSpaceOnUse" x2="24.067" gradientTransform="matrix(.44140 0 0 .43367 .18202 .46429)" y1="25.746" x1="24.067">
   <stop id="stop4875" style="stop-color:#fff" offset="0"/>
   <stop id="stop4877" style="stop-color:#fff;stop-opacity:0" offset="1"/>
  </linearGradient>
  <linearGradient id="linearGradient3004" y2="5.5" gradientUnits="userSpaceOnUse" x2="29.816" gradientTransform="matrix(.47204 0 0 .46117 -.56177 -.26699)" y1="46.024" x1="29.816">
   <stop id="stop17" style="stop-color:#ccc" offset="0"/>
   <stop id="stop19" style="stop-color:#fff" offset=".9831"/>
  </linearGradient>
 </defs>
 <path id="rect5117" style="stroke-linejoin:round;stroke:#757575;fill:url(#linearGradient3004)" d="m2.5 11.262 0.0295 10.238h16.97v-10.238l-8.733-8.762-8.267 8.762z"/>
 <path id="path7391" style="opacity:.4;stroke:url(#linearGradient3001);fill:none" d="m3.5 11.306v9.1939h15v-9.1939l-7.724-7.806-7.276 7.806z"/>
 <path id="path3438" style="fill:url(#linearGradient2998);fill-rule:evenodd" d="m11 13v8h-6v-8h6z"/>
 <path id="path3440" style="fill:url(#linearGradient2995);fill-rule:evenodd" d="m10 14v7h-4v-7h4z"/>
 <path id="path3442" style="opacity:.40909;fill:url(#radialGradient2992);fill-rule:evenodd" d="m9.4983 18.188c0.33029 0 0.59727 0.2259 0.59727 0.50383 0 0.28-0.2674 0.508-0.5977 0.508-0.3301 0-0.5983-0.228-0.5983-0.509 0.000253-0.27793 0.26825-0.50383 0.59828-0.50383z"/>
 <path id="path3444" style="fill:#fce94f;fill-rule:evenodd" d="m9.496 18.029c0.27173 0 0.49137 0.21285 0.49137 0.47472 0 0.26452-0.21964 0.47914-0.49137 0.47914-0.27152 0-0.4922-0.21462-0.4922-0.47914 0.000208-0.26187 0.22069-0.47472 0.4922-0.47472z"/>
 <rect id="rect3464" style="stroke:#757575;stroke-width:1.0012;fill:#a9c3c8" rx=".38118" ry=".38233" height="3.9988" width="3.9988" y="13.501" x="12.501"/>
 <path id="path3466" style="opacity:.39773;fill:url(#radialGradient2987)" d="m13.006 15.985c1.218 0.12153 1.8608-0.53052 2.9854-0.5698l0.009-1.412-3-0.0022 0.0063 1.9846z"/>
 <path id="path3472" style="fill:url(#linearGradient2984)" d="m11.289 5.1628 9.2413 8.2215 0.24153 0.1877 0.1971-0.08207-0.18206-0.36471-0.13555-0.10699-9.3623-7.4565-9.4671 7.5384-0.11601 0.06901-0.10581 0.33843 0.21162 0.06189 0.18776-0.14768 9.2896-8.2589z"/>
 <path id="path3474" style="stroke:#973137;stroke-width:0.998;fill:#d1524c" d="m0.5 9.3829v3.4313l2 0.989s8.3942-8.0716 8.5-8.1533l8.5 8.1603 2-1.017v-3.4052l-10.5-9.688-10.5 9.6831z"/>
 <path id="path3476" style="opacity:.40909;fill:url(#radialGradient2980)" d="m1 9.5832 0.0375 3.0168 9.9625-9.5001-0.033-2.6-9.967 9.0833z"/>
 <path id="path3478" style="opacity:.13636;fill:url(#radialGradient2977)" d="m11 3.0999v-2.6l10 9.1316v2.9683l-10-9.5z"/>
 <path id="path3670" style="fill:#fff" d="m9.6269 18.411a0.24589 0.23847 0 0 1 -0.49178 0 0.24589 0.23847 0 1 1 0.49178 0z"/>
</svg>
